shader_type canvas_item;
uniform float progress: hint_range(0.0, 1.0, 0.1);

void fragment() {
	COLOR.rgb = mix(COLOR.rgb,vec3(1.0),progress);
}

//void light() {
//	// Called for every pixel for every light affecting the CanvasItem.
//	// Uncomment to replace the default light processing function with this one.
//}
